X: 1
T: Mouse In the Cupboard
C: J-22
M: 6/8
Z: Transcribed to abc by Mary Lou Knack
R: jig
K: G
G/A/| "G"BcB "C"AGE| "G"DGG "D"FGA| "G"BAB "C"cBc| "D"def "G"gdc|
      "G"BcB "C"AGE| "G"DGG "D"FGA| "G"Bcd "D"cAF| AGF "G"G2:|
|:\
A| "G"BAB "D"cBc| "G"def g2d| def gfg| "D"a2g fed|
   "G"dgg b2g| "D"a2g fdc| "G"Bcd "D"cAF| AGF "G"G2:|
%%text 9/1/98
